X:2
T:Northan Frisk, A
M:4/4
L:1/4
Q:1/2=105
S:D.Wright, Extraordinary Collection, London 1713
Z:Pete Stewart, 2004 <www.hornpipemusic.co.uk>
K:G
e/f/ | g/f/e/d/gB | fAeA | fe/f/gG | FA2e/f/ |
g/f/e/d/gB | fAeA | dDcD | DG2 :|
A/B/ | B/A/G/F/Fd | EcDB | BA/B/ c/B/A/G/ | FD2e/f/ |
g/f/e/d/da | B gAf | fe/f/ g d/c/ | Bg2 |]

